X:1
T:Reel Maginot
M:C|
L:1/8
R:Reel
Q:”Quick”
S:2020-3-20 Andrew Kuntz on Facebook
N:From the playing of fiddler J.O. Albert LaMadeleine
N: (1880-1973, Montreal, Québec)
D:Starr 16293 (78 RPM), J.O. Albert & Marcel LaMadeleine (1940. Recorded Nov. 1939))
D:http://www.collectionscanada.ca/obj/m2/f7/14362.mp3
Z:Transcribed by Andrew Kuntz
K:G
B2|: {Bc}BABc d2d2|"*" {c}BBcd efe2| A2AB cBcA|Ggfa g2g2|
dBdg eceg|fdfa gf g2|dBdg ecAF|1G2 GF G2 GG:|2 G2 GF G2||
gd|edBA G2gd|edBA G2 BG|AGBG AGBd|(B/c/B) AF G2gd|
edBA GBgf|gddd ecAF|G2 GF G2 GA||
P:2nd strain, different phrasing
gd|edBA G2 gd|[M:2/4]edBA|[M:3/2]G2 BGAG BGAG Bd|[M:C|](B/c/B) AF G2 gd|
edBA GBgf|gddd ecAF |G2 GF G2||
Hide or report this

